X:1
T:P2_No.3
T:Book1_P2_No.3 
L:1/8
Q:1/4=80
M:3/4
K:C
V:1 bass nm="大提琴" snm="Vc."
V:1
 z6 | C,2 E,2 G,2 | F,2 D,2 G,2 | E,2 G,2 C2 | C4 B, z | D2 B,2 G,2 | C2 A,2 ^F,2 | G,2 D,2 B,2 | %8
 B,4 A, z | A,2 D2 C2 | B,2 A,2 G,2 | C2 C2 C2 | C2 B,2 A,2 | G,2 F,2 E,2 | F,2 D,2 G,2 | C,6 | %16
 C,2 z2 z2 |] %17

